svg/black/matic.svg

<svg width="96" height="96" viewBox="0 0 96 96" fill="none" xmlns="http://www.w3.org/2000/svg">
<g id="black/matic">
<path id="Subtract" fill-rule="evenodd" clip-rule="evenodd" d="M96 48C96 74.5097 74.5097 96 48 96C21.4903 96 0 74.5097 0 48C0 21.4903 21.4903 0 48 0C74.5097 0 96 21.4903 96 48ZM58.0138 29.7589L68.0023 24L78 29.7641L77.9555 29.7897V65.58L68.0146 71.3069L68.0008 71.3349L67.9833 71.3249L67.9578 71.3396V71.3102L58.0048 65.5738V52.8336L47.9915 58.5662V58.5664L47.9914 58.5663L47.9832 58.571L47.9775 58.5583L37.9988 52.8082V65.5683L28.0012 71.3294V71.2863L27.9947 71.3319L18 65.5693V29.7626V29.7582L18.005 29.7597L28.0007 24L57.9694 41.2829L58.0048 41.2778V29.7641V29.7582L58.0138 29.7589Z" fill="black"/>
</g>
</svg>

<svg width="96" height="96" viewBox="0 0 96 96" fill="none" xmlns="http://www.w3.org/2000/svg"><path fill-rule="evenodd" clip-rule="evenodd" d="M96 48c0 26.51-21.49 48-48 48S0 74.51 0 48 21.49 0 48 0s48 21.49 48 48zM58.014 29.759L68.002 24 78 29.764l-.044.026v35.79l-9.941 5.727-.014.028-.018-.01-.025.015v-.03l-9.953-5.736v-12.74L47.99 58.566l-.008.005-.005-.013-9.98-5.75v12.76L28 71.329v-.043l-.006.046L18 65.569V29.758l.005.002L28.001 24l29.968 17.283.036-.005v-11.52h.009z" fill="#000"/></svg>
